X: 11
T: J'ay pris amours I
N: Derived from Jap3011-Jay_pris_amours_I.krn
C: Jean Japart
%%abc-version 2.0
%%abcx-abcm2ps-target-version 5.9.1 (29 Sep 2008)
%%abc-creator hum2abc beta
%%abcx-conversion-date 2019/02/16 20:40:05
%%abc-edited-by Jesse Rodin
%%abc-edited-by Chris Gage 09-11-2013
%%abcx-initial-encoding-date 2013/10/23/
%%humdrum-veritas 322855912
%%humdrum-veritas-data 2722606218
%%linebreak <none>
%%barnumbers 0
L: 1/4
M: 2/1
Q: 1/2=120
%%staves [1 2 3 4]
V: 1 clef=treble
V: 2 clef=treble-8
V: 3 clef=treble-8
V: 4 clef=bass
K: Bb
[V:1] G8 | 
[V:2] d8- | 
[V:3] G8- | 
[V:4] G,,8- | 
[V:1] B4B4 | 
[V:2] d4d4- | 
[V:3] G8 | 
[V:4] G,,8 | 
[V:1] A8 | 
[V:2] d2cBA4 | 
[V:3] F8 | 
[V:4] D,8 | 
[V:1] D8 | 
[V:2] B4G4- | 
[V:3] z4B4 | 
[V:4] G,8 | 
[V:1] z4F4 | 
[V:2] G2FGA4 | 
[V:3] c4d4 | 
[V:4] E,4D,4 | 
[V:1] G4A4 | 
[V:2] z4c4 | 
[V:3] e2c4f2- | 
[V:4] C,4F,4 | 
[V:1] B4A2F2 | 
[V:2] B2G2A4 | 
[V:3] f2e2f3d | 
[V:4] G,4D,2F,2 | 
[V:1] G4F4 | 
[V:2] G4A2d2 | 
[V:3] e2c2d2B2 | 
[V:4] E,4D,4 | 
[V:1] z4A4 | 
[V:2] edcBA4 | 
[V:3] cBAG^F4 | 
[V:4] C,4D,3C, | 
[V:1] B4c4 | 
[V:2] G2d2c2A2 | 
[V:3] G4z2A2 | 
[V:4] B,,2G,,2A,,2C,2 | 
[V:1] d4c2A2 | 
[V:2] G2g2e2f2 | 
[V:3] B4z2c2 | 
[V:4] G,,2B,,2A,,4 | 
[V:1] B2G4A2 | 
[V:2] g3fedf2 | 
[V:3] d2e2c4 | 
[V:4] G,,2C,3D,E,F, | 
[V:1] G2=E2^F4 | 
[V:2] d2=e2d4 | 
[V:3] B2c2A4 | 
[V:4] G,2C,2D,4 | 
[V:1] G8 | 
[V:2] z2d4f2- | 
[V:3] G2B4AG | 
[V:4] E,2G,4F,E, | 
[V:1] z8 | 
[V:2] f2edc4 | 
[V:3] F2G4^F2 | 
[V:4] D,2C,B,,A,,4 | 
[V:1] G8 | 
[V:2] B2d3cBA | 
[V:3] G3AB2c2 | 
[V:4] G,,4z4 | 
[V:1] B4A4- | 
[V:2] G4A4 | 
[V:3] d2e2f2d2- | 
[V:4] G,,4D,4- | 
[V:1] A4F4 | 
[V:2] F4z2A2- | 
[V:3] dcA4d2- | 
[V:4] D,2F,4E,D, | 
[V:1] G4F4- | 
[V:2] A2G2A4 | 
[V:3] d2c2d4 | 
[V:4] E,4D,4- | 
[V:1] F4B4- | 
[V:2] B3cd4 | 
[V:3] z4g4- | 
[V:4] D,2B,,4A,,G,, | 
[V:1] B2A2A2GA | 
[V:2] G4c4 | 
[V:3] g2^f=e^f4 | 
[V:4] B,,2C,2A,,4 | 
[V:1] B8 | 
[V:2] B4z2G2 | 
[V:3] g3fd2e2 | 
[V:4] G,,2G,3F,G,2 | 
[V:1] z8 | 
[V:2] A2B2G2A2 | 
[V:3] f2ede2d2- | 
[V:4] D,2G,4F,2 | 
[V:1] B8 | 
[V:2] G4d3e | 
[V:3] dcBAG4 | 
[V:4] G,2G,,3A,,B,,C, | 
[V:1] A4F4 | 
[V:2] f2d3cBA | 
[V:3] F4z2B2- | 
[V:4] D,4z4 | 
[V:1] G8 | 
[V:2] G2G4FG | 
[V:3] B2G2B2c2 | 
[V:4] E,8 | 
[V:1] F4D4- | 
[V:2] A4B4 | 
[V:3] d2f3ed2- | 
[V:4] D,4B,,2B,2- | 
[V:1] D4G4- | 
[V:2] G4d2e2- | 
[V:3] dcBAB2c2- | 
[V:4] B,A,G,F,G,2C,2 | 
[V:1] G4F4 | 
[V:2] ede2d4 | 
[V:3] cBc2A4 | 
[V:4] E,3C,D,4 | 
[V:1] G4A4 | 
[V:2] B4A4 | 
[V:3] G2g2fedc | 
[V:4] G,,4z4 | 
[V:1] F8 | 
[V:2] z4d4 | 
[V:3] d4A2B2 | 
[V:4] D,8 | 
[V:1] z8 | 
[V:2] c2d2e4 | 
[V:3] A2d4c2 | 
[V:4] F,4E,4 | 
[V:1] F8 | 
[V:2] f2d3cd2 | 
[V:3] d2B2A4 | 
[V:4] D,8 | 
[V:1] G6F2 | 
[V:2] B2d4c2- | 
[V:3] G2B4A2 | 
[V:4] G,,4z2A,,2 | 
[V:1] E2D2D4- | 
[V:2] c2d2A2B2- | 
[V:3] G4F2G2- | 
[V:4] C,2B,,2D,2G,,A,, | 
[V:1] D4^C4 | 
[V:2] BAG2A4 | 
[V:3] GF=ED=E4 | 
[V:4] B,,4A,,4 | 
[V:1] D8 | 
[V:2] F2B3cdc | 
[V:3] D4z2G2 | 
[V:4] z2D,2B,,3C, | 
[V:1] z4A4 | 
[V:2] A2G2c2A2- | 
[V:3] F2G2A2c2- | 
[V:4] D,2E,2F,2A,2- | 
[V:1] A4A4 | 
[V:2] ABc2d4- | 
[V:3] cBAG^F4 | 
[V:4] A,G,F,E,D,4 | 
[V:1] B6AG | 
[V:2] d2g4fe | 
[V:3] G3AB2c2 | 
[V:4] G,,4z2A,,2 | 
[V:1] F4G4 | 
[V:2] d4z4 | 
[V:3] d4e4 | 
[V:4] B,,2D,2C,4 | 
[V:1] A4F4- | 
[V:2] c2d3cAB | 
[V:3] f3ga4 | 
[V:4] F,,4z4 | 
[V:1] F2=E2=E2D2 | 
[V:2] c2BAG4 | 
[V:3] g8 | 
[V:4] C,6C,2 | 
[V:1] F8 | 
[V:2] F2A3GA2 | 
[V:3] z4d4 | 
[V:4] D,3E,F,2E,F, | 
[V:1] z4D4 | 
[V:2] G4z4 | 
[V:3] e4f4 | 
[V:4] G,2E,2D,4 | 
[V:1] E4F4 | 
[V:2] c4d3c | 
[V:3] g4d4 | 
[V:4] C,4z2D,2 | 
[V:1] G4D4 | 
[V:2] BAG4A2- | 
[V:3] G2B3Ad2- | 
[V:4] E,2G,3F,E,D, | 
[V:1] z4F4 | 
[V:2] A2G2A4 | 
[V:3] d2c2d2f2- | 
[V:4] E,4D,4 | 
[V:1] G4F4 | 
[V:2] B2c2A2B2- | 
[V:3] f2e2f2d2- | 
[V:4] z2C,2D,C,B,,A,, | 
[V:1] B6A2 | 
[V:2] Bcd3ef2 | 
[V:3] d2B2d3c | 
[V:4] G,,2G,4F,2 | 
[V:1] G4F4 | 
[V:2] d2e2d4 | 
[V:3] B2c2A2F2 | 
[V:4] G,2C,2D,4 | 
[V:1] B4A2d2- | 
[V:2] z2d6 | 
[V:3] G4F2f2- | 
[V:4] G,,4D,4 | 
[V:1] d2c2A2GA | 
[V:2] d4f4 | 
[V:3] f2edc4 | 
[V:4] B,,4F,4 | 
[V:1] B4G4- | 
[V:2] z2d4e2 | 
[V:3] d2B4c2- | 
[V:4] D,2G,4C,2 | 
[V:1] G4^F4 | 
[V:2] c3Bd4 | 
[V:3] cBAGA4 | 
[V:4] E,4D,4 | 
[V:1] G8 |]  
[V:2] d8 |]  
[V:3] G8 |]  
[V:4] G,,8 |]  



